svgs/sharp-light/cart-shopping-fast.svg

<svg xmlns="http://www.w3.org/2000/svg" viewBox="0 0 640 512"><!--! Font Awesome Pro 6.6.0 by @fontawesome - https://fontawesome.com License - https://fontawesome.com/license (Commercial License) Copyright 2024 Fonticons, Inc. --><path d="M64 0L80 0l64 0 12.8 0 2.8 12.5L164 32l442.4 0L640 32 630 64 560 288l-337.8 0 14.5 64L560 352l16 0 0 32-16 0-336 0-12.8 0-2.8-12.5L131.2 32 80 32 64 32 64 0zM536.5 256l60-192L171.3 64 215 256l321.5 0zM272 456a24 24 0 1 0 -48 0 24 24 0 1 0 48 0zm-80 0a56 56 0 1 1 112 0 56 56 0 1 1 -112 0zm328 24a24 24 0 1 0 0-48 24 24 0 1 0 0 48zm0-80a56 56 0 1 1 0 112 56 56 0 1 1 0-112zM16 128l96 0 16 0 0 32-16 0-96 0L0 160l0-32 16 0zm0 64l112 0 16 0 0 32-16 0L16 224 0 224l0-32 16 0zm0 64l128 0 16 0 0 32-16 0L16 288 0 288l0-32 16 0z"/></svg>

<svg xmlns="http://www.w3.org/2000/svg" viewBox="0 0 640 512"><!--! Font Awesome Pro 6.4.0 by @fontawesome - https://fontawesome.com License - https://fontawesome.com/license (Commercial License) Copyright 2023 Fonticons, Inc. --><path d="M64 0H80h64 12.8l2.8 12.5L164 32H606.5 640L630 64 560 288H222.2l14.5 64H560h16v32H560 224 211.2l-2.8-12.5L131.2 32H80 64V0zM536.5 256l60-192H171.3L215 256H536.5zM272 456a24 24 0 1 0 -48 0 24 24 0 1 0 48 0zm-80 0a56 56 0 1 1 112 0 56 56 0 1 1 -112 0zm328 24a24 24 0 1 0 0-48 24 24 0 1 0 0 48zm0-80a56 56 0 1 1 0 112 56 56 0 1 1 0-112zM16 128h96 16v32H112 16 0V128H16zm0 64H128h16v32H128 16 0V192H16zm0 64H144h16v32H144 16 0V256H16z"/></svg>
